X:42
T:score134
L:1/8
Q:1/4=96
M:6/8
I:linebreak $
K:C
 G | (.c.B.c .d.e.f | .g.a.b .c'.d'.e') | .f'2 .e' .f'2 .e' |$ .d'2 z z2 D | (.G.^F.G .A.B.c | %6
 .d.e.f .g.a.b) | .c'2 .d' .c'2 .d' |$ .c'2 z z3 |] %9
